material/.icons/material/numeric-1-box.svg

<svg xmlns="http://www.w3.org/2000/svg" viewBox="0 0 24 24"><path d="M14 17h-2V9h-2V7h4m5-4H5a2 2 0 00-2 2v14a2 2 0 002 2h14a2 2 0 002-2V5a2 2 0 00-2-2z"/></svg>

<?xml version="1.0" encoding="UTF-8"?><!DOCTYPE svg PUBLIC "-//W3C//DTD SVG 1.1//EN" "http://www.w3.org/Graphics/SVG/1.1/DTD/svg11.dtd"><svg xmlns="http://www.w3.org/2000/svg" xmlns:xlink="http://www.w3.org/1999/xlink" version="1.1" id="mdi-numeric-1-box" width="24" height="24" viewBox="0 0 24 24"><path d="M14,17H12V9H10V7H14M19,3H5A2,2 0 0,0 3,5V19A2,2 0 0,0 5,21H19A2,2 0 0,0 21,19V5A2,2 0 0,0 19,3Z" /></svg>
